X: 30273
M: 3/8
L: 1/16
K: C
e2c2 GG | e2c2 GG | edfdBd | ceg2 GG |\
e2c2 GG | e2c2 GG | edfdBd | c4 :|
|: g2 |\
agfedc | BcBcBc | BcBcBg | f4 GG |\
e2c2 GG | e2c2 GG | edfdBd | c4 :|
|: g |\
c'2c'c'c'c' | g2gggg | e2eeee | c6 |\
d2 de d2 | e2 ef e2 | d2dcde | c4 :|


